symbols/web/location_searching/materialsymbolsoutlined/location_searching_wght300_24px.svg

<svg xmlns="http://www.w3.org/2000/svg" height="24" width="24"><path d="M11.25 22.25v-1.725q-3.125-.325-5.263-2.463Q3.85 15.925 3.525 12.8H1.8v-1.5h1.725q.325-3.125 2.462-5.263Q8.125 3.9 11.25 3.575V1.85h1.5v1.725q3.125.325 5.263 2.462 2.137 2.138 2.462 5.263H22.2v1.5h-1.725q-.325 3.125-2.462 5.262-2.138 2.138-5.263 2.463v1.725Zm.75-3.2q2.9 0 4.95-2.05Q19 14.95 19 12.05q0-2.9-2.05-4.95Q14.9 5.05 12 5.05q-2.9 0-4.95 2.05Q5 9.15 5 12.05q0 2.9 2.05 4.95Q9.1 19.05 12 19.05Z"/></svg>

<svg xmlns="http://www.w3.org/2000/svg" height="24" width="24"><path d="M11.25 22.25V20.525Q8.125 20.2 5.987 18.062Q3.85 15.925 3.525 12.8H1.8V11.3H3.525Q3.85 8.175 5.987 6.037Q8.125 3.9 11.25 3.575V1.85H12.75V3.575Q15.875 3.9 18.013 6.037Q20.15 8.175 20.475 11.3H22.2V12.8H20.475Q20.15 15.925 18.013 18.062Q15.875 20.2 12.75 20.525V22.25ZM12 19.05Q14.9 19.05 16.95 17Q19 14.95 19 12.05Q19 9.15 16.95 7.1Q14.9 5.05 12 5.05Q9.1 5.05 7.05 7.1Q5 9.15 5 12.05Q5 14.95 7.05 17Q9.1 19.05 12 19.05Z"/></svg>
